assets/images/ywc18/icon/facebook.svg

<svg width="38" height="67" fill="none" xmlns="http://www.w3.org/2000/svg"><path d="M34.9122 24.4777H24.0421v-6.1961c0-3.1972.259-5.211 4.8198-5.211h5.7604V3.21874c-2.8031-.29122-5.6216-.43373-8.4432-.42753-8.3661 0-14.4719 5.13351-14.4719 14.55789v7.1286H2.45605v12.3924l9.25115-.0031v27.8857h12.3349V36.8608l9.4547-.0031 1.4154-12.38z" stroke="#FF5D29" stroke-width="4"/></svg>

<svg width="38" height="67" viewBox="0 0 38 67" fill="none" xmlns="http://www.w3.org/2000/svg">
<path d="M34.9122 24.4777H24.0421V18.2816C24.0421 15.0844 24.3011 13.0706 28.8619 13.0706H34.6223V3.21874C31.8192 2.92752 29.0007 2.78501 26.1791 2.79121C17.813 2.79121 11.7072 7.92472 11.7072 17.3491V24.4777H2.45605V36.8701L11.7072 36.867V64.7527H24.0421V36.8608L33.4968 36.8577L34.9122 24.4777Z" stroke="#FF5D29" stroke-opacity="1" stroke-width="4"/>
</svg>
